X: 35632
T: Sailing In
R: reel
M: 4/4
K: Dmajor
|:D3 A FA A2|DAFA GE E2|D2 AG FA A2|GE E2 EFGE|
D2 AG FA A2|FADA BGEG|D2 AG FA A2|BGEF G2 FE:|
|:Dd d2 d2 AG|FAdf ecAG|FAdA FAdf|edcB AGFE|
Dd d2 d2 AG|FAdf efge|afge f2 ed|c2 Bd cAGE:|

